imgs/youtube.svg

<svg width="20" height="20" viewBox="0 0 20 20" fill="none" xmlns="http://www.w3.org/2000/svg">
<path d="M17.994 6.00235C17.899 5.65018 17.7136 5.32902 17.4559 5.07082C17.1983 4.81262 16.8776 4.6264 16.5256 4.53068C15.2206 4.17235 9.99979 4.16651 9.99979 4.16651C9.99979 4.16651 4.77979 4.16068 3.47396 4.50318C3.12223 4.6033 2.80214 4.79216 2.54443 5.05162C2.28671 5.31109 2.10003 5.63245 2.00229 5.98485C1.65812 7.28985 1.65479 9.99651 1.65479 9.99651C1.65479 9.99651 1.65146 12.7165 1.99312 14.0082C2.18479 14.7224 2.74729 15.2865 3.46229 15.479C4.78062 15.8374 9.98729 15.8432 9.98729 15.8432C9.98729 15.8432 15.2081 15.849 16.5131 15.5074C16.8652 15.4118 17.1863 15.226 17.4445 14.9683C17.7028 14.7107 17.8893 14.3901 17.9856 14.0382C18.3306 12.734 18.3331 10.0282 18.3331 10.0282C18.3331 10.0282 18.3498 7.30735 17.994 6.00235ZM8.32979 12.504L8.33396 7.50401L12.6731 10.0082L8.32979 12.504Z" fill="#F67ACB"/>
</svg>

<svg xmlns="http://www.w3.org/2000/svg" width="20" height="20" fill="none"><path fill="#F67ACB" d="M17.994 6.002a2.09 2.09 0 0 0-1.468-1.471C15.22 4.172 10 4.167 10 4.167s-5.22-.006-6.526.336a2.13 2.13 0 0 0-1.472 1.482c-.344 1.305-.347 4.012-.347 4.012s-.004 2.72.338 4.011a2.09 2.09 0 0 0 1.47 1.471c1.318.358 6.524.364 6.524.364s5.221.006 6.526-.336a2.1 2.1 0 0 0 1.473-1.469c.345-1.304.347-4.01.347-4.01s.017-2.72-.339-4.026M8.33 12.504l.004-5 4.34 2.504z"/></svg>
